icons-dark/preferences/32/preferences-web-browser-identification.svg

<?xml version="1.0" encoding="UTF-8" standalone="no"?>

<!-- Created with Inkscape (http://www.inkscape.org/) -->
<svg width="32" version="1.1" xmlns="http://www.w3.org/2000/svg" height="32" xmlns:xlink="http://www.w3.org/1999/xlink" xmlns:inkscape="http://www.inkscape.org/namespaces/inkscape">
 <defs id="defs5455">
  <linearGradient inkscape:collect="always" id="linearGradient4161" xlink:href="#linearGradient4290" y1="29.999973" y2="1.999974" gradientUnits="userSpaceOnUse" x2="0" gradientTransform="matrix(1 0 0 1 391.07976 514.8177)"/>
  <linearGradient id="linearGradient4290">
   <stop style="stop-color:#a5a5a5" id="stop4292"/>
   <stop offset="1" style="stop-color:#f5f2f5" id="stop4294"/>
  </linearGradient>
  <linearGradient inkscape:collect="always" id="linearGradient4230" xlink:href="#linearGradient4227" y1="12.505747" y2="19.505716" x1="23.00004" gradientUnits="userSpaceOnUse" x2="30.00001" gradientTransform="matrix(1 0 0 1 391.07976 514.8177)"/>
  <linearGradient inkscape:collect="always" id="linearGradient4227">
   <stop style="stop-color:#292c2f" id="stop4229"/>
   <stop offset="1" style="stop-opacity:0" id="stop4231"/>
  </linearGradient>
  <linearGradient inkscape:collect="always" id="linearGradient4297" xlink:href="#linearGradient4227" y1="-2.981466" y2="19.03909" x1="0.043347" gradientUnits="userSpaceOnUse" x2="22.0639" gradientTransform="matrix(1 0 0 1 391.07976 514.8177)"/>
  <linearGradient inkscape:collect="always" id="linearGradient4210" xlink:href="#linearGradient4227" y1="9" y2="25" x1="6" gradientUnits="userSpaceOnUse" x2="22" gradientTransform="matrix(1 0 0 1 391.07976 514.8177)"/>
  <linearGradient inkscape:collect="always" xlink:href="#linearGradient4227" id="linearGradient4640" y1="9" x1="8.999981" y2="23.00003" x2="23.00001" gradientUnits="userSpaceOnUse"/>
 </defs>
 <metadata id="metadata5458"/>
 <g inkscape:label="Capa 1" inkscape:groupmode="layer" id="layer1" transform="matrix(1 0 0 1 -384.57143 -515.798)">
  <rect width="28.00001" x="386.57141" y="517.79797" rx="14.00001" height="28.00003" style="fill:#4d4d4d" id="rect4130"/>
  <path inkscape:connector-curvature="0" style="fill:url(#linearGradient4297);opacity:0.2;fill-rule:evenodd" id="path4286" d="m 403.16516,518.04606 -2.97461,0.38086 -4.13476,2.38671 -1.50196,2.60157 c 0,0 -1.97389,1.39027 -2.27148,1.31054 -2.51679,-0.0295 -3.86861,0.66467 -4.58008,1.54688 -0.30087,0.70315 -0.53694,1.43965 -0.7207,2.19726 -0.005,0.76074 0.16211,1.35157 0.16211,1.35157 7.06054,6.35629 14.12109,9.09619 21.18164,13.64258 0.44458,-0.29535 0.86915,-0.61602 1.27539,-0.95899 0.0233,-0.0196 0.0452,-0.0408 0.0684,-0.0606 0.35986,-0.30788 0.70287,-0.63592 1.02929,-0.97851 0.0723,-0.0757 0.14035,-0.15508 0.21094,-0.23243 0.28268,-0.31039 0.55271,-0.6316 0.80664,-0.96679 0.0574,-0.0755 0.11405,-0.15178 0.16992,-0.22852 0.2755,-0.37955 0.53468,-0.77239 0.77149,-1.17969 0.0177,-0.0303 0.0372,-0.0594 0.0547,-0.0898 1.06486,-1.86383 1.71381,-3.99888 1.82422,-6.28125 3.1e-4,-0.007 0.002,-0.013 0.002,-0.0195 l 0,-0.002 -1.82427,-7.63667 c -1.99967,-3.48807 -5.45172,-6.02061 -9.54883,-6.7832 z"/>
  <path inkscape:connector-curvature="0" style="fill:url(#linearGradient4230);opacity:0.2;fill-rule:evenodd" id="path4219" d="m 413.58313,526.63981 -4.30664,6.66015 4.11914,4.11914 c 0.75152,-1.71996 1.17578,-3.61787 1.17578,-5.62109 0,-1.8258 -0.35798,-3.56171 -0.98828,-5.1582 z"/>
  <path inkscape:connector-curvature="0" style="fill:url(#linearGradient4161)" id="path34" d="m 400.37805,517.80778 c -1.07247,0.0145 -2.11123,0.15379 -3.11133,0.39453 -0.26327,0.23612 -0.65181,0.35584 -1.08789,0.34375 -0.15609,0.14931 -0.12005,0.42785 -0.20508,0.63281 -0.0716,0.17219 -0.32387,0.35646 -0.49609,0.3418 -0.1274,-0.0108 -0.27302,-0.18993 -0.27344,-0.3086 -4.6e-4,-0.14327 0.19914,-0.22314 0.0898,-0.38281 -1.11446,0.45173 -2.15103,1.04733 -3.09961,1.75586 0.25441,-0.0937 0.53497,-0.25118 0.76562,-0.25586 0.0379,-4.5e-4 0.0727,0.003 0.10742,0.0117 0.15492,0.0406 0.56321,0.48776 0.22266,0.63281 -0.0323,0.014 -0.49939,0.0648 -0.58008,0.0508 -0.11861,-0.0199 -0.18915,-0.18382 -0.30859,-0.20508 -0.20061,-0.0347 -0.45568,0.17366 -0.62891,0.0801 -1.9078,1.53997 -3.38836,3.57495 -4.27539,5.91016 0.0814,-0.047 0.16466,-0.0964 0.23828,-0.13477 0.24992,-0.12992 0.46099,-0.33992 0.75196,-0.35937 0.14514,-0.003 0.35476,0.0391 0.49414,0.0684 0.12865,0.0264 0.23244,0.11271 0.34375,0.12109 0.31592,0.0241 0.39067,-0.22172 0.64843,-0.35937 0.26628,0.0376 0.44312,-0.0446 0.6836,-0.0176 0.16396,0.0181 0.2824,0.19331 0.41015,0.20312 0.10747,0.0108 0.20265,-0.0999 0.30664,-0.084 0.10102,0.0156 0.2746,0.23592 0.29102,0.35938 0.0207,0.15368 -0.11249,0.29214 -0.0684,0.46093 0.16098,0.16396 0.45354,0.19656 0.68359,0.29102 0.14979,-0.12344 0.0199,-0.35257 0,-0.53125 -0.003,-0.0787 0.0108,-0.14821 0,-0.2207 -0.014,-0.12305 -0.0675,-0.23648 -0.0684,-0.3418 -0.003,-0.48642 0.39247,-0.71418 0.71875,-0.90625 0.14123,-0.0837 0.25246,-0.22975 0.375,-0.29102 0.17306,-0.0868 0.30201,-0.10698 0.44531,-0.1875 0.25893,-0.14545 0.48113,-0.2629 0.68359,-0.42773 0.0936,-0.22055 0.0103,-0.51641 0.0176,-0.73438 0.0937,-0.0574 0.17411,0.0258 0.27344,0.0176 0.15626,-0.0326 0.16926,-0.25375 0.25781,-0.3418 0.0515,-0.0505 0.19191,-0.0866 0.25586,-0.13671 0.15574,-0.12217 0.20581,-0.30673 0.3418,-0.35938 0.0487,-0.0198 0.16143,-0.0145 0.23828,-0.0351 0.10123,-0.0269 0.2453,-0.14662 0.41015,-0.20313 0.10748,-0.0375 0.35351,-0.0447 0.39453,-0.0859 0.0505,-0.0515 -7e-5,-0.19624 0.0176,-0.27343 0.0829,-0.38587 0.66425,-0.46773 1.00782,-0.59766 0.24081,-0.0913 0.48735,-0.25832 0.75195,-0.20703 -0.0518,0.1834 -0.29765,0.11911 -0.25586,0.3418 0.0577,0.30905 0.47094,-0.0892 0.58008,-0.13477 0.20856,-0.0879 0.56621,-0.14096 0.83984,-0.24023 0.23994,-0.0879 0.66952,-0.22166 0.44336,-0.4961 -0.18859,-0.0108 -0.27896,0.22072 -0.44336,0.29102 -0.11352,0.0181 -0.0926,-0.0944 -0.18945,-0.10352 -0.0921,-0.0108 -0.14367,0.0845 -0.23828,0.0684 -0.094,-0.0156 -0.22552,-0.16345 -0.24024,-0.27344 -0.0375,-0.28535 0.2412,-0.40242 0.35938,-0.61523 -0.0781,-0.25813 -0.43462,-0.0533 -0.65039,-0.1543 0.0206,-0.15367 0.17986,-0.25968 0.35937,-0.28906 0.14715,-0.0248 0.47683,-0.012 0.56446,0.0664 0.0507,0.0431 0.004,0.15098 0.0859,0.22265 0.0871,0.0787 0.1936,0.0713 0.30664,0.0527 0.0409,-0.19478 -0.25265,-0.14662 -0.22071,-0.2754 0.2309,-0.15104 0.60598,-0.0264 0.88868,-0.0684 0.16273,-0.0241 0.33431,-0.13956 0.47851,-0.22071 0.13716,-0.0781 0.31544,-0.21365 0.46094,-0.0859 0.0395,0.13958 -0.12738,0.18646 -0.20508,0.25586 -0.26155,0.23266 -0.53108,0.49931 -0.73437,0.76953 0.12473,0.12167 0.35146,0.0608 0.5625,0.0859 0.0825,0.0108 0.18619,0.0354 0.27343,0.0508 0.10188,0.0181 0.21121,0.0125 0.29102,0.0332 0.14358,0.0353 0.18206,0.18945 0.32422,0.18945 0.23386,-4.2e-4 0.23599,-0.25409 0.10351,-0.41211 0.0418,-0.16134 0.10731,-0.24441 0.0508,-0.35742 -0.10532,-0.2107 -0.49185,-0.0108 -0.51172,-0.27344 -0.0127,-0.17043 0.1433,-0.16351 0.20508,-0.29102 -0.0281,-0.32932 0.27014,-0.35325 0.23828,-0.64843 -0.014,-0.12346 -0.11865,-0.12456 -0.20508,-0.24024 -0.0449,-0.0591 -0.0651,-0.17684 -0.11914,-0.22265 -0.17878,-0.15105 -0.54245,-0.12185 -0.56445,-0.41016 -0.003,-0.0976 0.0107,-0.18504 0.0195,-0.27734 -0.16483,-0.008 -0.32783,-0.0231 -0.49414,-0.0254 l -0.38672,0 z m -6.66016,3.35351 c 0.0798,0.0108 0.17664,0.0962 0.27344,0.10352 0.0913,0.003 0.16653,-0.0502 0.22266,-0.0352 0.14295,0.0376 0.20267,0.25358 0.0684,0.35938 -0.11176,0.014 -0.15601,-0.0481 -0.24024,-0.0332 -0.23216,0.0395 -0.32065,0.49357 -0.49414,0.47852 -0.16363,-0.014 -0.25208,-0.41257 -0.0859,-0.53125 0.0108,-0.1036 -0.0755,-0.12026 -0.0703,-0.22266 0.0494,-0.0633 0.18978,-0.13065 0.32617,-0.11914 z m -0.76953,0.0527 c 0.0476,0.002 0.0833,0.0125 0.10157,0.0332 -0.0227,0.18219 -0.16593,0.17093 -0.30664,0.25586 -0.24302,0.14668 -0.38362,0.37025 -0.46094,0.68359 -0.0224,0.0913 -0.26128,0.33277 -0.37696,0.30859 -0.27105,-0.0571 0.0749,-0.55687 0.13672,-0.63281 0.0683,-0.0842 0.15964,-0.15867 0.24024,-0.25586 0.0781,-0.0941 0.12975,-0.2212 0.20508,-0.27343 0.0825,-0.0571 0.31812,-0.12463 0.46093,-0.11915 z m 2.02344,0.61523 c 0.0868,0.002 0.16361,0.0156 0.19922,0.0508 -0.0557,0.22574 -0.54092,0.16555 -0.71875,0.084 0.0116,-0.0851 0.14394,-0.10791 0.25586,-0.11914 0.0787,-0.003 0.17699,-0.0181 0.26367,-0.0156 z m -1.10742,0.41602 c 0.0577,-0.002 0.11702,0.0112 0.17773,0.0273 -0.15732,0.13158 -0.3275,0.20554 -0.59765,0.29102 -0.1299,0.0411 -0.35495,0.0924 -0.37696,-0.0527 -0.0269,-0.1778 0.18998,-0.13643 0.3086,-0.15234 0.14932,-0.0206 0.31334,-0.10768 0.48828,-0.11328 z m 17.16992,0.2539 c 0.0129,0.12845 0.0151,0.25039 -0.0195,0.38867 -0.0465,0.18518 -0.21323,0.35313 -0.20508,0.51368 0.0108,0.0825 0.10092,0.16185 0.1211,0.27343 0.0108,0.0592 -0.0277,0.1863 0,0.24024 0.0868,0.16832 0.32394,0.0257 0.47851,0.0508 0.15101,0.0243 0.32591,0.24092 0.32422,0.41015 -0.002,0.11785 -0.11284,0.31419 -0.1875,0.42774 -0.14901,0.22659 -0.35079,0.23656 -0.56445,0.35742 -0.17819,0.10101 -0.25492,0.26959 -0.35938,0.44531 -0.11318,0.18978 -0.18334,0.30512 -0.13672,0.58008 -0.15275,0.30298 -0.38475,0.48868 -0.70117,0.63281 -0.0936,0.0423 -0.22077,0.057 -0.30664,0.11914 -0.0683,0.0492 -0.10793,0.18185 -0.20508,0.29102 -0.11988,0.13341 -0.24556,0.18909 -0.30859,0.29102 -0.0487,0.0787 -0.0653,0.23607 -0.11914,0.34179 -0.073,0.14355 -0.2284,0.21391 -0.32422,0.35938 -0.0437,0.0673 -0.0728,0.20295 -0.12109,0.29101 -0.10827,0.19679 -0.29332,0.33866 -0.27344,0.51172 0.0198,0.16729 0.20971,0.19598 0.22266,0.3418 0.003,0.0824 -0.0542,0.13283 -0.0508,0.22266 0.003,0.13116 0.0912,0.22327 0.10156,0.32421 0.0255,0.2538 -0.087,0.35578 -0.13477,0.5293 -0.0227,0.0829 -0.0132,0.17547 -0.0352,0.24024 -0.0418,0.12702 -0.21915,0.24236 -0.22265,0.39257 -0.002,0.10672 0.11013,0.19199 0.11914,0.3418 0.003,0.10328 -0.0514,0.21364 -0.0332,0.30859 0.0363,0.18601 0.3691,0.40235 0.51367,0.54688 0.19338,0.19337 0.44598,0.34314 0.5293,0.54687 0.0703,0.17305 0.0703,0.39892 0.20508,0.5293 0.0997,0.0963 0.26484,0.1557 0.39257,0.25586 0.11912,0.0935 0.24962,0.17424 0.37696,0.27344 0.20807,0.16275 0.52203,0.48789 0.85351,0.46289 0.17306,-0.0127 0.35054,-0.15457 0.54688,-0.18945 0.202,-0.0361 0.4642,-0.0542 0.66797,-0.0332 0.15609,0.0156 0.31625,0.10901 0.47851,0.10156 0.17132,-0.0108 0.36782,-0.13763 0.5625,-0.22266 0.30763,-0.13388 0.75501,-0.30024 1.20508,-0.27539 0.0861,-0.63034 0.14648,-1.2691 0.14648,-1.92383 0,-2.6491 -0.74147,-5.11293 -2.00977,-7.2207 -0.0589,-0.004 -0.11306,-0.0121 -0.17773,-0.01 -0.17344,0.0108 -0.45836,0.0108 -0.46094,-0.20508 -0.002,-0.17731 0.16726,-0.21647 0.36914,-0.22852 -0.37762,-0.57781 -0.80114,-1.1209 -1.25781,-1.63476 z m -21.36914,6.41406 c -0.28395,0.0156 -0.46943,0.0286 -0.63086,0.10157 -0.36987,0.16833 -0.29844,0.66886 -0.66797,0.78711 -0.12781,0.0409 -0.30265,0.0424 -0.44336,0.0684 -0.12141,0.0221 -0.26939,0.0885 -0.39453,0.0859 -0.14806,-0.003 -0.40609,-0.14565 -0.49414,-0.24024 -0.0606,-0.0656 -0.15981,-0.29493 -0.22461,-0.44726 -0.0892,0.4921 -0.15079,0.99302 -0.1875,1.50195 0.0303,0.006 0.0624,0.0137 0.0879,0.0137 0.16186,9.7e-4 0.335,-0.16698 0.51367,-0.17188 0.41908,-0.0116 0.60104,0.53329 0.93946,0.70118 0.0851,0.0423 0.19705,0.0441 0.30664,0.0684 0.0885,0.0198 0.155,0.057 0.24023,0.0859 0.18077,0.0613 0.40227,0.0547 0.54688,0.11914 0.21791,0.0967 0.37707,0.50561 0.56445,0.61523 0.0108,0.11048 -0.0204,0.25943 0.0176,0.3418 0.0885,0.12003 0.21353,0.0936 0.35937,0.17187 0.17446,0.0941 0.22723,0.3359 0.39258,0.41016 0.057,0.0254 0.20085,0.0231 0.29102,0.0508 0.22657,0.0686 0.29994,0.33076 0.49414,0.27344 0.12738,-0.0375 0.11803,-0.16926 0.13867,-0.29102 0.0842,-0.0913 0.1754,-0.2357 0.30664,-0.23828 0.21237,-0.0108 0.23131,0.21951 0.30859,0.42578 0.0436,0.11656 0.15772,0.21882 0.1875,0.3418 0.0529,0.21238 0.0272,0.84762 -0.0176,0.97461 -0.0535,0.15573 -0.26453,0.22185 -0.39454,0.39453 -0.0613,0.0809 -0.0905,0.19895 -0.13671,0.25586 -0.0837,0.10188 -0.20888,0.12861 -0.27149,0.22265 -0.0354,0.0529 -0.0691,0.16669 -0.10351,0.23829 -0.10263,0.21749 -0.24064,0.37169 -0.1543,0.63281 0.0361,0.10748 0.20466,0.18016 0.20508,0.30664 4.4e-4,0.14885 -0.31726,0.28215 -0.3418,0.44531 -0.0181,0.12141 0.0982,0.3381 0.13672,0.49609 0.0283,0.11938 0.25386,0.194 0.32422,0.27344 0.12001,0.13468 0.21654,0.32495 0.32617,0.49414 0.21672,0.33278 0.38665,0.73814 0.59766,1.06055 0.11152,0.16886 0.26749,0.32081 0.34179,0.49609 0.038,0.0885 0.0334,0.19396 0.0684,0.27344 0.12216,0.27573 0.66107,0.56432 0.93946,0.70117 0.13033,0.0634 0.27497,0.0861 0.39453,0.15235 0.18117,0.10101 0.53939,0.3724 0.63086,0.53125 0.0815,0.14278 0.13226,0.48972 0.17187,0.71679 0.0529,0.30003 0.003,0.53052 0.0176,0.85547 0.0108,0.17575 0.0665,0.35316 0.0684,0.5293 9.3e-4,0.0617 -0.0325,0.10697 -0.0352,0.16992 -0.003,0.21323 0.0534,0.45343 0.0352,0.66797 -0.001,0.046 -0.006,0.0806 -0.0137,0.12109 1.67757,0.70807 3.52365,1.09961 5.46484,1.09961 0.20315,0 0.40057,-0.0228 0.60156,-0.0312 0.005,-0.0319 0.009,-0.0639 0.0156,-0.0898 0.0619,-0.17342 0.22148,-0.23118 0.32422,-0.35938 0.078,-0.0967 0.11364,-0.20997 0.1875,-0.30664 0.0803,-0.10532 0.15216,-0.19826 0.20508,-0.29101 0.0505,-0.31208 -0.12435,-0.52954 -0.0508,-0.80274 0.0817,-0.30688 0.50534,-0.49435 0.80273,-0.63281 0.1023,-0.0475 0.2077,-0.12538 0.29102,-0.1543 0.20581,-0.0717 0.4622,-0.0329 0.65039,-0.10156 0.32025,-0.11721 0.35378,-0.46017 0.51172,-0.75195 0.0745,-0.13818 0.1729,-0.27658 0.1875,-0.375 0.0127,-0.0885 -0.0319,-0.17108 -0.0176,-0.27539 0.0156,-0.10328 0.10808,-0.1932 0.13672,-0.30664 0.0375,-0.14807 0.0527,-0.36437 0.0527,-0.5293 0,-0.13537 -0.0627,-0.25484 -0.0684,-0.37695 -0.0221,-0.44337 0.16017,-0.49309 0.32421,-0.73438 0.0823,-0.11988 0.11247,-0.25589 0.16993,-0.34179 0.27538,-0.41087 0.75331,-0.60938 0.71875,-1.23047 -0.0116,-0.20553 -0.13984,-0.67072 -0.29102,-0.73633 -0.0865,-0.0376 -0.28502,-0.003 -0.41016,-0.0508 -0.404,-0.15071 -0.64192,-0.6516 -1.06054,-0.68359 -0.0894,-0.0108 -0.17088,0.0368 -0.27149,0.0352 -0.16571,-0.0108 -0.41616,-0.11608 -0.59961,-0.13672 -0.11656,-0.0127 -0.27181,0.0346 -0.34179,0 -0.10673,-0.0519 -0.11826,-0.24799 -0.20508,-0.30664 -0.0689,-0.0473 -0.20223,-0.0631 -0.30664,-0.10352 -0.16833,-0.0648 -0.30187,-0.14076 -0.4961,-0.1543 -0.0599,-0.003 -0.13528,0.0286 -0.20507,0.0176 -0.10748,-0.0181 -0.19186,-0.14471 -0.29102,-0.20508 -0.12421,-0.0756 -0.23966,-0.11286 -0.29101,-0.22071 0.11224,-0.36816 -0.19797,-0.47088 -0.27344,-0.6836 -0.0361,-0.0997 -0.0192,-0.21969 -0.0508,-0.3086 -0.0445,-0.12739 -0.17054,-0.20039 -0.30859,-0.30664 -0.24736,-0.19038 -0.46683,-0.3685 -0.82032,-0.41211 -0.1554,-0.0198 -0.30835,0.0467 -0.49609,0.0352 -0.19897,-0.0127 -0.44882,-0.18732 -0.59766,-0.35742 -0.14468,-0.16606 -0.21575,-0.31513 -0.34179,-0.39453 -0.11939,-0.0767 -0.27784,-0.0747 -0.35938,-0.15234 -0.0363,-0.0339 -0.0296,-0.092 -0.0684,-0.17188 -0.06,-0.12434 -0.1607,-0.19283 -0.0859,-0.3418 -0.13621,-0.07 -0.14001,0.12937 -0.28906,0.10352 -0.13285,-0.18858 -0.24517,-0.27796 -0.54688,-0.22266 -0.13817,0.0255 -0.21595,0.20074 -0.37695,0.20508 -0.13202,0.0108 -0.23578,-0.1471 -0.41016,-0.17187 -0.13159,-0.0181 -0.28132,0.0355 -0.375,0.0176 -0.14589,-0.0291 -0.19094,-0.15064 -0.32421,-0.23828 -0.0977,-0.0642 -0.28699,-0.17362 -0.3418,-0.17188 -0.17182,0.0108 -0.29431,0.3658 -0.53125,0.24024 -0.11515,-0.14591 0.18744,-0.22287 0.0508,-0.35938 -0.1036,-0.1036 -0.1906,0.0464 -0.27344,0.10352 -0.0949,0.0655 -0.18417,0.13111 -0.28906,0.16992 -0.2348,0.0879 -0.38095,0.0418 -0.56445,0.13672 -0.16991,0.088 -0.17717,0.2353 -0.27344,0.41015 -0.0787,0.14325 -0.25868,0.35074 -0.37695,0.35938 -0.14325,0.0108 -0.28022,-0.19967 -0.41016,-0.25586 -0.39145,-0.16956 -0.5812,0.14995 -0.90625,0.1543 -0.30168,0.0108 -0.73195,-0.48592 -0.7168,-0.76954 0.003,-0.17306 0.0989,-0.4363 0.11914,-0.65039 0.0181,-0.17026 0.13476,-0.27231 0.13672,-0.42773 0.003,-0.20762 -0.27546,-0.36796 -0.41015,-0.39258 -0.31936,-0.0587 -0.7629,0.1289 -1.12891,-0.0176 -0.07,-0.11584 0.0819,-0.19591 0.12109,-0.30859 0.0221,-0.064 0.0103,-0.15026 0.0332,-0.22071 0.0406,-0.10886 0.15404,-0.19325 0.20508,-0.30859 0.0382,-0.088 0.0475,-0.21501 0.0859,-0.32422 0.0445,-0.12434 0.1271,-0.2038 0.13672,-0.29101 0.0127,-0.11514 -0.0309,-0.24829 -0.12109,-0.32422 z m 4.57031,3.61914 c 0.11585,0.0108 0.13019,0.25029 0.0117,0.26954 -0.12781,0.0199 -0.19223,-0.20047 -0.0684,-0.25782 0.0207,-0.0108 0.04,-0.0128 0.0566,-0.0117 z"/>
  <path inkscape:connector-curvature="0" style="fill:url(#linearGradient4210);opacity:0.2;fill-rule:evenodd" id="path4193" d="m 425.30974,526.79801 0,1 -1,0 -1,9 -9,1 c 2,2 2.41505,2.66029 8,8 2.73944,-1.05564 9.41078,-8.58383 11,-11 z"/>
  <path style="fill:url(#linearGradient4640);opacity:0.2;fill-rule:evenodd" id="path4597" d="M 13 9 L 13 10 L 10 10 L 10 13 L 9 14 L 10.5 15.5 L 10 16 L 9 17 L 11 19 L 10 19 L 10 22 L 9 23 L 16 30 C 23.756003 30 30 23.756003 30 16 L 23 9 L 22 10 L 19 10 L 19 11 L 17 9 L 16 10 L 17 11 L 16.5 11.5 L 14 9 L 13 9 z " transform="matrix(1 0 0 1 384.57143 515.798)"/>
  <path style="fill:#ffd42a" id="rect4333" d="M 9 9 L 9 14 L 14 14 L 14 9 L 9 9 z M 16 9 L 16 10 L 17 10 L 17 9 L 16 9 z M 18 9 L 18 14 L 23 14 L 23 9 L 18 9 z M 10 10 L 13 10 L 13 13 L 10 13 L 10 10 z M 19 10 L 22 10 L 22 13 L 19 13 L 19 10 z M 11 11 L 11 12 L 12 12 L 12 11 L 11 11 z M 15 11 L 15 12 L 15 13 L 16 13 L 16 12 L 17 12 L 17 11 L 16 11 L 15 11 z M 16 13 L 16 14 L 15 14 L 15 15 L 14 15 L 14 16 L 15 16 L 15 17 L 16 17 L 17 17 L 17 16 L 16 16 L 16 15 L 17 15 L 17 14 L 17 13 L 16 13 z M 17 15 L 17 16 L 18 16 L 18 17 L 19 17 L 19 16 L 20 16 L 20 15 L 19 15 L 18 15 L 17 15 z M 20 11 L 20 12 L 21 12 L 21 11 L 20 11 z M 10 15 L 10 16 L 11 16 L 11 15 L 10 15 z M 11 16 L 11 17 L 12 17 L 13 17 L 13 16 L 13 15 L 12 15 L 12 16 L 11 16 z M 10 16 L 9 16 L 9 17 L 10 17 L 10 16 z M 21 15 L 21 16 L 22 16 L 22 15 L 21 15 z M 21 17 L 21 18 L 22 18 L 22 17 L 21 17 z M 22 18 L 22 19 L 23 19 L 23 18 L 22 18 z M 9 18 L 9 23 L 14 23 L 14 18 L 9 18 z M 17 18 L 17 19 L 18 19 L 18 18 L 17 18 z M 17 19 L 16 19 L 16 20 L 15 20 L 15 21 L 16 21 L 16 22 L 17 22 L 17 21 L 17 20 L 17 19 z M 19 18 L 19 19 L 20 19 L 20 18 L 19 18 z M 20 19 L 20 20 L 21 20 L 21 19 L 20 19 z M 21 20 L 21 21 L 22 21 L 22 20 L 21 20 z M 21 21 L 20 21 L 20 22 L 20 23 L 21 23 L 21 22 L 21 21 z M 20 21 L 20 20 L 19 20 L 18 20 L 18 21 L 18 22 L 19 22 L 19 21 L 20 21 z M 10 19 L 13 19 L 13 22 L 10 22 L 10 19 z M 11 20 L 11 21 L 12 21 L 12 20 L 11 20 z M 22 22 L 22 23 L 23 23 L 23 22 L 22 22 z " transform="matrix(1 0 0 1 384.57143 515.798)"/>
 </g>
</svg>

<svg height="32" width="32" xmlns="http://www.w3.org/2000/svg" xmlns:xlink="http://www.w3.org/1999/xlink"><linearGradient id="b" gradientUnits="userSpaceOnUse" x1="6" x2="26" xlink:href="#a" y1="6" y2="26"/><linearGradient id="a"><stop offset="0" stop-color="#292c2f"/><stop offset="1" stop-opacity="0"/></linearGradient><linearGradient id="c" gradientUnits="userSpaceOnUse" x1="23" x2="30" xlink:href="#a" y1="13" y2="20"/><linearGradient id="d" gradientUnits="userSpaceOnUse" x1="2" x2="2" y1="30" y2="2"><stop offset="0" stop-color="#a5a5a5"/><stop offset="1" stop-color="#f5f2f5"/></linearGradient><linearGradient id="f" gradientUnits="userSpaceOnUse" x1="-403.097" x2="-403.097" y1="-497.798" y2="-511.798"><stop offset="0" stop-color="#ffd42a"/><stop offset="1" stop-color="#ffdf62"/></linearGradient><linearGradient id="e" gradientUnits="userSpaceOnUse" x1="9" x2="25" xlink:href="#a" y1="9" y2="25"/><rect fill="#4f575f" height="28" rx="14" width="28" x="2" y="2"/><path d="M18.594 2.248l-2.975.38-4.135 2.388-1.502 2.601s-1.973 1.39-2.271 1.31c-2.517-.029-3.869.665-4.58 1.548-.301.703-.537 1.44-.72 2.197-.006.76.161 1.351.161 1.351 7.06 6.357 14.121 9.097 21.182 13.643a13.9 13.9 0 0 0 1.275-.959l.069-.06c.36-.308.703-.636 1.029-.979.072-.076.14-.155.21-.232a13.928 13.928 0 0 0 1.749-2.375l.055-.09a13.991 13.991 0 0 0 1.824-6.282l.002-.02v-.001L28.143 9.03a13.95 13.95 0 0 0-9.55-6.783z" fill="url(#b)" fill-rule="evenodd" opacity=".2"/><path d="M29.012 10.842l-4.307 6.66 4.12 4.12a13.997 13.997 0 0 0 .187-10.78z" fill="url(#c)" fill-rule="evenodd" opacity=".2"/><path d="M16 2a14 14 0 0 0-13.059 9H3l3-1 1 1 1 1v-2l2-1V8l2-1 2-2v1l1-1-1-1h2v1l2-1-1-1v-.95A14 14 0 0 0 16 2zm10.375 4.625L26 7v1h1.469a14 14 0 0 0-1.094-1.375zm1.316 1.684L27 9l-2 2-1 1-1 3v1l1 1 1 1 2 1 2.791-.688A14 14 0 0 0 30 16a14 14 0 0 0-2.309-7.691zM4 13l-1 1h-.838c-.05.34-.088.681-.113 1.023v.002L4 16l1 1 2 1 1 1-1 1v2l1 2 2 2v2.629A14 14 0 0 0 16 30c.17-.003.34-.009.51-.018L17 29v-1l2-1 1-1v-2l1-1v-1l-1-1-3-1-1-1-1-1h-1l-1-1-3-1-2 1H6v-2H5v-2z" fill="url(#d)"/><path d="M13 9v1h-3v3l-1 1 1.5 1.5-.5.5-1 1 2 2h-1v3l-1 1 7 7c7.756 0 14-6.244 14-14l-7-7-1 1h-3v1l-2-2-1 1 1 1-.5.5L14 9z" fill="url(#e)" fill-rule="evenodd" opacity=".2"/><path d="M9 9v5h5V9zm7 0v1h1V9zm2 0v5h5V9zm-8 1h3v3h-3zm9 0h3v3h-3zm-8 1v1h1v-1zm4 0v2h1v-1h1v-1h-1zm1 2v1h-1v1h-1v1h1v1h2v-1h-1v-1h1v-2zm1 2v1h1v1h1v-1h1v-1h-2zm3-4v1h1v-1zm-10 4v1h1v-1zm1 1v1h2v-2h-1v1zm-1 0H9v1h1zm11-1v1h1v-1zm0 2v1h1v-1zm1 1v1h1v-1zM9 18v5h5v-5zm8 0v1h1v-1zm0 1h-1v1h-1v1h1v1h1v-2zm2-1v1h1v-1zm1 1v1h1v-1zm1 1v1h1v-1zm0 1h-1v2h1v-1zm-1 0v-1h-2v2h1v-1zm-10-2h3v3h-3zm1 1v1h1v-1zm11 2v1h1v-1z" fill="url(#f)"/><path d="M29.979 15.414A14 14 0 0 1 16 29 14 14 0 0 1 2.021 15.586 14 14 0 0 0 2 16a14 14 0 0 0 14 14 14 14 0 0 0 14-14 14 14 0 0 0-.021-.586z" fill="#292c2f" opacity=".3"/></svg>
